dist/assets/img/ocp-logo.svg

<svg width="121" height="42" viewBox="0 0 121 42" fill="none" xmlns="http://www.w3.org/2000/svg">
<path d="M22.9082 6.0373C22.9082 9.66539 20.1934 12.0534 16.7664 12.0534C13.3394 12.0534 10.6414 9.66539 10.6414 6.0373C10.6414 2.40921 13.3729 0.0212097 16.7831 0.0212097C20.1934 0.0212097 22.9082 2.40921 22.9082 6.0373ZM13.9175 6.0373C13.8254 7.53714 14.9565 8.81912 16.4564 8.91967C16.5569 8.91967 16.6658 8.91967 16.7664 8.91967C18.3584 8.91967 19.6487 7.6293 19.6487 6.0373C19.6487 4.4453 18.3584 3.15494 16.7664 3.15494C15.2665 3.08791 14.0013 4.24421 13.9343 5.74404C13.9343 5.84459 13.9343 5.93675 13.9343 6.0373H13.9175Z" fill="#C4D017"/>
<path d="M22.9333 20.7173C22.9333 24.3454 20.2185 26.7334 16.7831 26.7334C13.3478 26.7334 10.6414 24.3538 10.6414 20.7173C10.6414 17.0808 13.3645 14.7012 16.7831 14.7012C20.2017 14.7012 22.9333 17.0892 22.9333 20.7173ZM13.9343 20.7173C13.8421 22.2171 14.9733 23.4991 16.4731 23.5997C16.5737 23.5997 16.6826 23.5997 16.7831 23.5997C18.3751 23.5997 19.6655 22.3093 19.6655 20.7173C19.6655 19.1253 18.3751 17.8349 16.7831 17.8349C15.2833 17.7595 14.0097 18.9075 13.9343 20.4073C13.9343 20.5078 13.9343 20.6168 13.9343 20.7173Z" fill="#C4D017"/>
<path d="M33.4572 4.34491C33.4572 6.66588 32.0747 8.4087 28.7817 8.4087H27.416V11.8022H24.2822V0.272736H28.7817C32.0747 0.272736 33.4572 2.02394 33.4572 4.34491ZM30.2313 4.34491C30.2313 3.48187 29.6029 3.04617 28.6979 3.04617H27.3992V5.64365H28.6979C29.6029 5.64365 30.2313 5.21632 30.2313 4.34491Z" fill="#424244"/>
<path d="M42.2386 8.94496V11.8106H34.6389V0.281113H42.0124V3.14672H37.7726V4.52087H41.4761V7.23565H37.7726V8.97009L42.2386 8.94496Z" fill="#424244"/>
<path d="M54.874 11.8106H52.4357L46.9977 5.61851H46.9642V11.8106H43.8389V0.281113H46.2771L51.7151 6.47316H51.7486V0.281113H54.8823V11.8106H54.874Z" fill="#424244"/>
<path d="M0 20.7174C0 16.8966 2.77344 14.7013 6.34287 14.7013C7.85946 14.6762 9.35092 15.1202 10.6078 15.9749L8.95711 18.6562C8.23652 18.1031 7.34835 17.7931 6.43504 17.7931C4.74249 17.7931 3.28455 18.8154 3.28455 20.7258C3.28455 22.6362 4.73411 23.6584 6.43504 23.6584C7.34835 23.6584 8.22814 23.3484 8.95711 22.7954L10.6078 25.4766C9.35092 26.3313 7.85946 26.7754 6.34287 26.7502C2.77344 26.7419 0 24.5466 0 20.7258V20.7174Z" fill="#424244"/>
<path d="M35.3259 26.4906H32.8876L27.458 20.2985H27.4245V26.4906H24.2908V14.9611H26.729L32.167 21.1532H32.2005V14.9611H35.3342V26.4906H35.3259Z" fill="#424244"/>
<path d="M45.4058 17.8181H42.5234V26.4904H39.3813V17.8181H36.5073V14.9525H45.4058V17.8181Z" fill="#424244"/>
<path d="M52.6867 26.4904L49.7289 22.192V26.4736H46.5952V14.9442H51.522C54.5552 14.9442 55.854 16.7373 55.854 18.7315C55.921 20.3151 54.8988 21.7479 53.3822 22.2003L56.5746 26.482H52.6783L52.6867 26.4904ZM49.7289 17.7344V20.2062H51.0947C52.0499 20.2062 52.6281 19.8123 52.6281 18.9577C52.6281 18.103 52.0499 17.7344 51.0947 17.7344H49.7289Z" fill="#424244"/>
<path d="M65.3981 24.3288H61.4935L60.7897 26.4989H57.3208L61.7784 14.9695H65.1216L69.5792 26.4989H66.1103L65.3897 24.3288H65.3981ZM64.6105 21.857L63.4374 18.2456L62.2476 21.857H64.6021H64.6105Z" fill="#424244"/>
<path d="M69.3611 20.7174C69.3611 16.8966 72.1345 14.7013 75.704 14.7013C77.2205 14.6762 78.712 15.1202 79.9688 15.9749L78.3182 18.6562C77.5976 18.1031 76.7094 17.7931 75.7961 17.7931C74.1036 17.7931 72.6456 18.8154 72.6456 20.7258C72.6456 22.6362 74.0952 23.6584 75.7961 23.6584C76.7094 23.6584 77.5892 23.3484 78.3182 22.7954L79.9688 25.4766C78.712 26.3313 77.2205 26.7754 75.704 26.7502C72.1345 26.7419 69.3611 24.5466 69.3611 20.7258V20.7174Z" fill="#424244"/>
<path d="M89.6799 17.8181H86.7976V26.4904H83.6639V17.8181H80.7815V14.9525H89.6799V17.8181Z" fill="#424244"/>
<path d="M93.9868 26.4906H90.853V14.9611H93.9868V26.4906Z" fill="#424244"/>
<path d="M107.016 26.4906H104.586L99.1563 20.2985H99.1227V26.4906H95.989V14.9611H98.4273L103.865 21.1532H103.899V14.9611H107.016V26.4906Z" fill="#424244"/>
<path d="M120.263 20.8848C120.263 24.2615 118.319 26.7166 114.624 26.7166C110.929 26.7166 108.365 24.2615 108.365 20.6837C108.365 17.1059 110.669 14.6844 114.783 14.6844C116.442 14.6509 118.068 15.1704 119.4 16.1675L117.49 18.7398C116.71 18.0611 115.722 17.6924 114.691 17.6841C112.797 17.6841 111.658 18.9158 111.658 20.7172C111.658 22.393 112.68 23.7337 114.775 23.7337C116.258 23.7337 116.962 23.0717 117.096 22.2841H114.247V19.6447H120.196C120.255 20.0888 120.271 20.5664 120.271 20.8764L120.263 20.8848Z" fill="#424244"/>
<path d="M11.1357 33.6797C11.1357 36.0006 9.75313 37.7435 6.46019 37.7435H5.08605V41.1369H1.96069V29.6075H6.46019C9.75313 29.6075 11.1357 31.3587 11.1357 33.6797ZM7.90975 33.6797C7.90975 32.8166 7.28133 32.3809 6.37641 32.3809H5.07767V34.9784H6.37641C7.29809 34.9784 7.90975 34.5511 7.90975 33.6797Z" fill="#424244"/>
<path d="M16.7412 32.9004L14.06 41.1369H10.5911L15.0487 29.6075H18.3919L22.8495 41.1369H19.3806L16.7328 32.9004H16.7412Z" fill="#424244"/>
<path d="M29.7368 41.1453L26.7707 36.8636V41.1453H23.637V29.6158H28.5638C31.597 29.6158 32.8957 31.4089 32.8957 33.4031C32.9627 34.9867 31.9405 36.4195 30.4239 36.872L33.6247 41.1537H29.7285L29.7368 41.1453ZM26.7707 32.3725V34.8359H28.1448C29.1 34.8359 29.6782 34.4421 29.6782 33.5875C29.6782 32.7328 29.1 32.3725 28.1448 32.3725H26.7707Z" fill="#424244"/>
<path d="M42.4228 32.4731H39.5237V41.1453H36.3899V32.4731H33.5076V29.6075H42.4144V32.4731H42.4228Z" fill="#424244"/>
<path d="M54.6309 41.1453H52.1926L46.7546 34.9532H46.7211V41.1453H43.5874V29.6158H46.0257L51.4636 35.8079H51.5223V29.6158H54.656L54.6309 41.1453Z" fill="#424244"/>
<path d="M64.2334 38.2797V41.1453H56.6421V29.6158H63.9904V32.4814H59.7674V33.8556H63.4709V36.5704H59.7674V38.3048L64.2418 38.2797H64.2334Z" fill="#424244"/>
<path d="M71.9334 41.1453L68.9672 36.8636V41.1453H65.8335V29.6158H70.7603C73.7935 29.6158 75.0922 31.4089 75.0922 33.4031C75.1593 34.9867 74.137 36.4195 72.6205 36.872L75.8128 41.1537H71.925L71.9334 41.1453ZM68.9672 32.3725V34.8359H70.333C71.2882 34.8359 71.8663 34.4421 71.8663 33.5875C71.8663 32.7328 71.2882 32.3725 70.333 32.3725H68.9672Z" fill="#424244"/>
<path d="M85.1972 30.3365L83.8482 33.1267C83.0103 32.5653 82.0383 32.2469 81.0328 32.205C80.5385 32.205 80.329 32.339 80.329 32.6407C80.329 32.8501 80.4631 33.0177 80.9407 33.2691L83.3119 34.484C84.5269 35.1125 85.4569 35.9336 85.4569 37.7435C85.4569 40.1147 83.8733 41.4051 80.9239 41.4051C79.2146 41.4051 77.5304 40.9526 76.0474 40.1063L77.4802 37.1067C78.8459 38.0786 79.9603 38.5227 81.0915 38.5227C81.6948 38.5227 82.0635 38.3886 82.0635 38.0116C82.0635 37.7351 81.8624 37.5759 81.5021 37.4083L78.98 36.1347C77.7064 35.5565 76.902 34.2746 76.9355 32.8753C76.9355 30.8141 78.3683 29.3813 81.2675 29.3813C82.6416 29.3813 83.9906 29.7164 85.2056 30.3448L85.1972 30.3365Z" fill="#424244"/>
<path d="M97.0704 29.6075V41.1369H93.9451V36.6542H90.0069V41.1369H86.8816V29.6075H90.0069V33.7886H93.9451V29.6075H97.0704Z" fill="#424244"/>
<path d="M102.207 41.1453H99.073V29.6158H102.207V41.1453Z" fill="#424244"/>
<path d="M113.392 33.6797C113.392 36.0006 112.01 37.7435 108.717 37.7435H107.351V41.1369H104.218V29.6075H108.717C112.01 29.6075 113.392 31.3587 113.392 33.6797ZM110.167 33.6797C110.167 32.8166 109.538 32.3809 108.633 32.3809H107.335V34.9784H108.633C109.538 34.9784 110.167 34.5511 110.167 33.6797Z" fill="#424244"/>
</svg>

<svg width="121" height="42" fill="none" xmlns="http://www.w3.org/2000/svg"><path d="M22.908 6.037c0 3.628-2.715 6.016-6.142 6.016-3.427 0-6.125-2.388-6.125-6.016S13.373.021 16.783.021s6.125 2.388 6.125 6.016zm-8.99 0a2.718 2.718 0 002.538 2.883h.31a2.882 2.882 0 100-5.765 2.71 2.71 0 00-2.832 2.589v.293h-.016zm9.015 14.68c0 3.628-2.715 6.016-6.15 6.016-3.435 0-6.142-2.38-6.142-6.016s2.723-6.016 6.142-6.016c3.419 0 6.15 2.388 6.15 6.016zm-8.999 0a2.718 2.718 0 002.54 2.883h.31a2.882 2.882 0 100-5.765 2.71 2.71 0 00-2.85 2.572v.31z" fill="#C4D017"/><path d="M33.457 4.345c0 2.32-1.382 4.064-4.675 4.064h-1.366v3.393h-3.134V.272h4.5c3.293 0 4.675 1.752 4.675 4.073zm-3.226 0c0-.863-.628-1.299-1.533-1.299h-1.299v2.598h1.299c.905 0 1.533-.428 1.533-1.3zm12.008 4.6v2.866h-7.6V.28h7.373v2.866h-4.24V4.52h3.704v2.715h-3.703V8.97l4.466-.025zm12.635 2.865h-2.438l-5.438-6.19h-.034v6.192H43.84V.28h2.438l5.438 6.192h.034V.281h3.133v11.53h-.008zM0 20.717c0-3.82 2.773-6.016 6.343-6.016a7.371 7.371 0 014.265 1.274l-1.65 2.681a4.154 4.154 0 00-2.523-.863c-1.693 0-3.15 1.022-3.15 2.933 0 1.91 1.45 2.932 3.15 2.932.913 0 1.793-.31 2.522-.863l1.65 2.682a7.37 7.37 0 01-4.264 1.273C2.773 26.742 0 24.547 0 20.726v-.009zm35.326 5.773h-2.438l-5.43-6.191h-.034v6.192h-3.133V14.96h2.438l5.438 6.192h.033V14.96h3.134v11.53h-.008zm10.08-8.672h-2.883v8.672h-3.142v-8.672h-2.874v-2.866h8.899v2.866zm7.281 8.672l-2.958-4.298v4.282h-3.134v-11.53h4.927c3.033 0 4.332 1.793 4.332 3.787a3.472 3.472 0 01-2.472 3.47l3.193 4.281h-3.897l.009.008zm-2.958-8.756v2.472h1.366c.955 0 1.533-.394 1.533-1.248 0-.855-.578-1.224-1.533-1.224h-1.366zm15.669 6.595h-3.904l-.704 2.17h-3.47l4.458-11.53h3.344l4.457 11.53H66.11l-.72-2.17h.008zm-.787-2.472l-1.174-3.611-1.19 3.611h2.363zm4.75-1.14c0-3.82 2.773-6.016 6.343-6.016a7.37 7.37 0 014.265 1.274l-1.65 2.681a4.154 4.154 0 00-2.523-.863c-1.692 0-3.15 1.022-3.15 2.933 0 1.91 1.45 2.932 3.15 2.932.913 0 1.793-.31 2.522-.863l1.65 2.682a7.37 7.37 0 01-4.264 1.273c-3.57-.008-6.343-2.203-6.343-6.024v-.009zm20.319-2.899h-2.882v8.672h-3.134v-8.672H80.78v-2.866h8.899v2.866zm4.307 8.672h-3.134V14.962h3.134v11.53zm13.029 0h-2.43l-5.43-6.191h-.033v6.192h-3.134V14.96h2.438l5.438 6.192h.034V14.96h3.117v11.53zm13.247-5.605c0 3.377-1.944 5.832-5.639 5.832-3.695 0-6.259-2.455-6.259-6.033 0-3.578 2.304-6 6.418-6a7.453 7.453 0 014.617 1.484l-1.91 2.572a4.301 4.301 0 00-2.799-1.056c-1.894 0-3.033 1.232-3.033 3.033 0 1.676 1.022 3.017 3.117 3.017 1.483 0 2.187-.662 2.321-1.45h-2.849v-2.64h5.949c.059.445.075.922.075 1.232l-.008.009zM11.136 33.68c0 2.32-1.383 4.063-4.676 4.063H5.086v3.394H1.961v-11.53h4.5c3.292 0 4.675 1.752 4.675 4.073zm-3.226 0c0-.863-.629-1.3-1.534-1.3H5.078v2.598h1.298c.922 0 1.534-.427 1.534-1.298zm8.831-.78l-2.681 8.237h-3.469l4.458-11.53h3.343l4.457 11.53h-3.468L16.733 32.9h.008zm12.996 8.245l-2.966-4.281v4.281h-3.134v-11.53h4.927c3.033 0 4.332 1.794 4.332 3.788a3.473 3.473 0 01-2.472 3.469l3.2 4.282h-3.896l.009-.009zm-2.966-8.773v2.464h1.374c.955 0 1.533-.394 1.533-1.248 0-.855-.578-1.215-1.533-1.215H26.77zm15.652.101h-2.9v8.672H36.39v-8.672h-2.882v-2.865h8.906v2.865h.009zm12.207 8.672h-2.437l-5.438-6.192h-.034v6.192h-3.134v-11.53h2.439l5.438 6.193h.058v-6.192h3.134l-.025 11.53zm9.603-2.865v2.865h-7.59v-11.53h7.347v2.866h-4.223v1.375h3.704v2.714h-3.704v1.735l4.475-.025h-.009zm7.7 2.865l-2.966-4.281v4.281h-3.133v-11.53h4.926c3.033 0 4.332 1.794 4.332 3.788a3.472 3.472 0 01-2.471 3.469l3.192 4.282h-3.888l.008-.009zm-2.966-8.773v2.464h1.366c.955 0 1.533-.394 1.533-1.248 0-.855-.578-1.215-1.533-1.215h-1.366zm16.23-2.035l-1.349 2.79a5.461 5.461 0 00-2.815-.922c-.495 0-.704.134-.704.436 0 .21.134.377.612.628l2.37 1.215c1.216.628 2.146 1.45 2.146 3.26 0 2.37-1.584 3.661-4.533 3.661a9.855 9.855 0 01-4.877-1.299l1.433-3c1.366.973 2.48 1.417 3.611 1.417.604 0 .973-.134.973-.511 0-.277-.202-.436-.562-.604l-2.522-1.273a3.486 3.486 0 01-2.044-3.26c0-2.06 1.432-3.494 4.331-3.494 1.375 0 2.724.335 3.939.964l-.009-.008zm11.873-.729v11.529h-3.125v-4.483h-3.938v4.483h-3.125v-11.53h3.125v4.182h3.938v-4.181h3.125zm5.137 11.537h-3.134v-11.53h3.134v11.53zm11.185-7.465c0 2.32-1.382 4.063-4.675 4.063h-1.366v3.394h-3.133v-11.53h4.499c3.293 0 4.675 1.752 4.675 4.073zm-3.225 0c0-.863-.629-1.3-1.534-1.3h-1.298v2.598h1.298c.905 0 1.534-.427 1.534-1.298z" fill="#424244"/></svg>
